svg/mini-qr.svg

<svg xmlns="http://www.w3.org/2000/svg" xml:space="preserve" viewBox="0 0 512 512"><path d="M76 0h356c34.9 8.9 59.6 30.2 74 64 2.7 125.3 2.7 250.7 0 376-11 38.4-35.7 62.4-74 72H76c-34.9-14.9-58.9-40.3-72-76V72Q26.05 22.05 76 0" style="fill-rule:evenodd;clip-rule:evenodd;fill:#697d80"/><path d="M348 256c-8.2-6.7-16.2-13.4-24-20l12-24c-10.3-3.9-21-5.3-32-4 1.3-11-.1-21.7-4-32-6.4 5.6-13.8 9.6-22 12-8.2-7.1-15.6-15.1-22-24q-7.5 13.05-18 24-12.9-4.35-24-12c-2 10.6-2.7 21.3-2 32-12.3-1.3-24.3.1-36 4 5.6 6.4 9.6 13.8 12 22-4.8 9.1-11.5 16.4-20 22 8.5 5.6 15.2 12.9 20 22-2.4 8.2-6.4 15.6-12 22 10.3 3.9 21 5.3 32 4-1.3 11 .1 21.7 4 32l24-12c8.2 7.1 15.6 15.1 22 24q11.85-39.6 42-12c3.9-10.3 5.3-21 4-32 11 1.3 21.7-.1 32-4l-12-24c7.8-6.6 15.8-13.3 24-20m-108 54c-32.8-16.9-44.1-42.9-34-78 8.3-14.3 19.6-25 34-32 31.1-3.5 54.4 8.5 70 36 7.8 54.6-15.6 79.3-70 74m8-102c46.1 4 62.8 28 50 72-22.9 28.3-48.2 31-76 8-19.5-36.7-10.8-63.4 26-80" style="fill-rule:evenodd;clip-rule:evenodd;fill:#f4ef99"/><path d="M456 420c-82 4-164.6 5.3-248 4 1.3 14.2-.1 27.5-4 40v-44z" style="fill-rule:evenodd;clip-rule:evenodd;fill:#7d9597"/><path d="M140 140V84H88v56c-3.9-19.2-5.3-39.2-4-60h60c1.3 20.8-.1 40.8-4 60m292 0V84h-52v56c-3.9-19.2-5.3-39.2-4-60h60c1.3 20.8-.1 40.8-4 60" style="fill-rule:evenodd;clip-rule:evenodd;fill:#8ca7a8"/><path d="M308 52h16v36c-6.6.9-12.6-.5-18-4-2.9-11-2.2-21.7 2-32M170 64l-10-10c-30.6-2-61.3-2.7-92-2-2.5 4.5-5.8 8.5-10 12-3.7 33.7-2.4 67.1 4 100 3 2.5 6.3 4.5 10 6 14 .7 28 1.3 42 2 17.1.4 33.8-1.6 50-6l6-6q4.05-48 0-96m-12 84-6 6c-26.3 3.2-52.3 2.6-78-2-6.3-24.9-7.7-50.2-4-76 4.2-3.5 7.5-7.5 10-12 22.7-.7 45.4 0 68 2l10 10q4.05 36 0 72m304-84-10-10c-30.6-2-61.3-2.7-92-2-2.5 4.5-5.8 8.5-10 12q-4.05 48 0 96c3.6 4.8 8.3 8.1 14 10 31.1 3.7 61.8 2.4 92-4 2.5-3 4.5-6.3 6-10 2.7-30.7 2.7-61.3 0-92m-12 80c-1.2 3.2-3.2 5.9-6 8-25.1 4.5-50.5 5.2-76 2l-6-6q-4.05-36 0-72c4.2-3.5 7.5-7.5 10-12 22.7-.7 45.4 0 68 2l10 10c2.7 22.7 2.7 45.3 0 68m-310-4H88V84h52zm292 0h-52V84h52zm-244-40c48-.7 96 0 144 2 5.3 6.7 5.3 13.3 0 20q-72 4.05-144 0c-5-7.3-5-14.6 0-22m208 80h20c.7 50.7 0 101.4-2 152-5.4 3.5-11.4 4.9-18 4zm-288 4c5.3-.7 10 .7 14 4 2 49.3 2.7 98.6 2 148-6.6.9-12.6-.5-18-4-3.2-49.6-2.6-99 2-148m-48 96c6.6-.9 12.6.5 18 4q4.05 24 0 48c-6.7 5.3-13.3 5.3-20 0-3.1-17.7-2.4-35 2-52m300 40h20c.7 10.7 0 21.4-2 32-5.3 5.3-10.7 5.3-16 0-2-10.6-2.7-21.3-2-32m96 100H204v44q-8.25 7.8-18 0-4.05-54 0-108c6.7-5.3 13.3-5.3 20 0 2 13.3 2.7 26.6 2 40 84-.7 168 0 252 2 5.9 8.9 4.6 16.3-4 22m-224-52h112v20H232zm124 64c33.4-.7 66.7 0 100 2 10.7 10.7 10.7 21.3 0 32-33.3 2.7-66.7 2.7-100 0-10.4-11.3-10.4-22.7 0-34m-186-72c-3.6-4.8-8.3-8.1-14-10-28-2-56-2.7-84-2-6.6 3.3-11.2 8.6-14 16-3.2 32.2-2.5 64.2 2 96 2.1 2.8 4.8 4.8 8 6 32.2 3.2 64.2 2.5 96-2 2.8-2.1 4.8-4.8 6-8q4.05-48 0-96m-90 94-10-10c-2.7-22.7-2.7-45.3 0-68 4.2-3.5 7.5-7.5 10-12 22.7-.7 45.4 0 68 2 3.2 1.2 5.9 3.2 8 6 23.5 73.1-1.8 100.5-76 82m4-74h56v60H84z" style="fill-rule:evenodd;clip-rule:evenodd;fill:#a9c9c8"/></svg>

<?xml version="1.0" encoding="utf-8"?>
<!-- Generator: Adobe Illustrator 28.2.0, SVG Export Plug-In . SVG Version: 6.00 Build 0)  -->
<svg version="1.1" id="Layer_1" xmlns="http://www.w3.org/2000/svg" xmlns:xlink="http://www.w3.org/1999/xlink" x="0px" y="0px"
	 viewBox="0 0 512 512" style="enable-background:new 0 0 512 512;" xml:space="preserve">
<style type="text/css">
	.st0{fill-rule:evenodd;clip-rule:evenodd;fill:#697D80;}
	.st1{fill-rule:evenodd;clip-rule:evenodd;fill:#F4EF99;}
	.st2{fill-rule:evenodd;clip-rule:evenodd;fill:#7D9597;}
	.st3{fill-rule:evenodd;clip-rule:evenodd;fill:#8CA7A8;}
	.st4{fill-rule:evenodd;clip-rule:evenodd;fill:#A9C9C8;}
</style>
<path class="st0" d="M76,0c118.7,0,237.3,0,356,0c34.9,8.9,59.6,30.2,74,64c2.7,125.3,2.7,250.7,0,376c-11,38.4-35.7,62.4-74,72
	c-118.7,0-237.3,0-356,0c-34.9-14.9-58.9-40.3-72-76C4,314.7,4,193.3,4,72C18.7,38.7,42.7,14.7,76,0z"/>
<path class="st1" d="M348,256c-8.2-6.7-16.2-13.4-24-20c4-8,8-16,12-24c-10.3-3.9-21-5.3-32-4c1.3-11-0.1-21.7-4-32
	c-6.4,5.6-13.8,9.6-22,12c-8.2-7.1-15.6-15.1-22-24c-5,8.7-11,16.7-18,24c-8.6-2.9-16.6-6.9-24-12c-2,10.6-2.7,21.3-2,32
	c-12.3-1.3-24.3,0.1-36,4c5.6,6.4,9.6,13.8,12,22c-4.8,9.1-11.5,16.4-20,22c8.5,5.6,15.2,12.9,20,22c-2.4,8.2-6.4,15.6-12,22
	c10.3,3.9,21,5.3,32,4c-1.3,11,0.1,21.7,4,32c8-4,16-8,24-12c8.2,7.1,15.6,15.1,22,24c7.9-26.4,21.9-30.4,42-12
	c3.9-10.3,5.3-21,4-32c11,1.3,21.7-0.1,32-4c-4-8-8-16-12-24C331.8,269.4,339.8,262.7,348,256z M240,310c-32.8-16.9-44.1-42.9-34-78
	c8.3-14.3,19.6-25,34-32c31.1-3.5,54.4,8.5,70,36C317.8,290.6,294.4,315.3,240,310z M248,208c46.1,4,62.8,28,50,72
	c-22.9,28.3-48.2,31-76,8C202.5,251.3,211.2,224.6,248,208z"/>
<path class="st2" d="M456,420c-82,4-164.6,5.3-248,4c1.3,14.2-0.1,27.5-4,40c0-14.7,0-29.3,0-44C288,420,372,420,456,420z"/>
<path class="st3" d="M140,140c0-18.7,0-37.3,0-56c-17.3,0-34.7,0-52,0c0,18.7,0,37.3,0,56c-3.9-19.2-5.3-39.2-4-60c20,0,40,0,60,0
	C145.3,100.8,143.9,120.8,140,140z M432,140c0-18.7,0-37.3,0-56c-17.3,0-34.7,0-52,0c0,18.7,0,37.3,0,56c-3.9-19.2-5.3-39.2-4-60
	c20,0,40,0,60,0C437.3,100.8,435.9,120.8,432,140z"/>
<path class="st4" d="M308,52c5.3,0,10.7,0,16,0c0,12,0,24,0,36c-6.6,0.9-12.6-0.5-18-4C303.1,73,303.8,62.3,308,52z M170,64
	c-3.3-3.3-6.7-6.7-10-10c-30.6-2-61.3-2.7-92-2c-2.5,4.5-5.8,8.5-10,12c-3.7,33.7-2.4,67.1,4,100c3,2.5,6.3,4.5,10,6
	c14,0.7,28,1.3,42,2c17.1,0.4,33.8-1.6,50-6c2-2,4-4,6-6C172.7,128,172.7,96,170,64z M158,148c-2,2-4,4-6,6c-26.3,3.2-52.3,2.6-78-2
	c-6.3-24.9-7.7-50.2-4-76c4.2-3.5,7.5-7.5,10-12c22.7-0.7,45.4,0,68,2c3.3,3.3,6.7,6.7,10,10C160.7,100,160.7,124,158,148z M462,64
	c-3.3-3.3-6.7-6.7-10-10c-30.6-2-61.3-2.7-92-2c-2.5,4.5-5.8,8.5-10,12c-2.7,32-2.7,64,0,96c3.6,4.8,8.3,8.1,14,10
	c31.1,3.7,61.8,2.4,92-4c2.5-3,4.5-6.3,6-10C464.7,125.3,464.7,94.7,462,64z M450,144c-1.2,3.2-3.2,5.9-6,8c-25.1,4.5-50.5,5.2-76,2
	c-2-2-4-4-6-6c-2.7-24-2.7-48,0-72c4.2-3.5,7.5-7.5,10-12c22.7-0.7,45.4,0,68,2c3.3,3.3,6.7,6.7,10,10
	C452.7,98.7,452.7,121.3,450,144z M140,140c-17.3,0-34.7,0-52,0c0-18.7,0-37.3,0-56c17.3,0,34.7,0,52,0C140,102.7,140,121.3,140,140
	z M432,140c-17.3,0-34.7,0-52,0c0-18.7,0-37.3,0-56c17.3,0,34.7,0,52,0C432,102.7,432,121.3,432,140z M188,100c48-0.7,96,0,144,2
	c5.3,6.7,5.3,13.3,0,20c-48,2.7-96,2.7-144,0C183,114.7,183,107.4,188,100z M396,180c6.7,0,13.3,0,20,0c0.7,50.7,0,101.4-2,152
	c-5.4,3.5-11.4,4.9-18,4C396,284,396,232,396,180z M108,184c5.3-0.7,10,0.7,14,4c2,49.3,2.7,98.6,2,148c-6.6,0.9-12.6-0.5-18-4
	C102.8,282.4,103.4,233,108,184z M60,280c6.6-0.9,12.6,0.5,18,4c2.7,16,2.7,32,0,48c-6.7,5.3-13.3,5.3-20,0
	C54.9,314.3,55.6,297,60,280z M360,320c6.7,0,13.3,0,20,0c0.7,10.7,0,21.4-2,32c-5.3,5.3-10.7,5.3-16,0
	C360,341.4,359.3,330.7,360,320z M456,420c-84,0-168,0-252,0c0,14.7,0,29.3,0,44c-5.5,5.2-11.5,5.2-18,0c-2.7-36-2.7-72,0-108
	c6.7-5.3,13.3-5.3,20,0c2,13.3,2.7,26.6,2,40c84-0.7,168,0,252,2C465.9,406.9,464.6,414.3,456,420z M232,368c37.3,0,74.7,0,112,0
	c0,6.7,0,13.3,0,20c-37.3,0-74.7,0-112,0C232,381.3,232,374.7,232,368z M356,432c33.4-0.7,66.7,0,100,2c10.7,10.7,10.7,21.3,0,32
	c-33.3,2.7-66.7,2.7-100,0C345.6,454.7,345.6,443.3,356,432z M170,360c-3.6-4.8-8.3-8.1-14-10c-28-2-56-2.7-84-2
	c-6.6,3.3-11.2,8.6-14,16c-3.2,32.2-2.5,64.2,2,96c2.1,2.8,4.8,4.8,8,6c32.2,3.2,64.2,2.5,96-2c2.8-2.1,4.8-4.8,6-8
	C172.7,424,172.7,392,170,360z M80,454c-3.3-3.3-6.7-6.7-10-10c-2.7-22.7-2.7-45.3,0-68c4.2-3.5,7.5-7.5,10-12c22.7-0.7,45.4,0,68,2
	c3.2,1.2,5.9,3.2,8,6C179.5,445.1,154.2,472.5,80,454z M84,380c18.7,0,37.3,0,56,0c0,20,0,40,0,60c-18.7,0-37.3,0-56,0
	C84,420,84,400,84,380z"/>
</svg>
